X:1
T:Majas Brudvals
C:Trad.
O:Sverge
D:Svart Kaffe
Z:Bart Vanhaverbeke 
L:1/8
M:3/4
K:A
EA c2 c(B | B)A Bd c2 | e(=g g)f df | e2 Bd c2 | EA c2 c(e | e)d Bd c2 | Bd cA BG |1 EG A2 cA :|2 EG A2 ce|]
a2 gb a2 | g2 fa g2 | fc fa gf | e2 Bd c2 | Bc de fa | gb a2 e2 | z (f f)d cA |1 BG A2 ce :|2 BG A2 cA |]
